public/svg/hourglass.svg

<svg xmlns="http://www.w3.org/2000/svg" enable-background="new 0 0 24 24" height="24" viewBox="0 0 24 24" width="24"><g><rect fill="none" height="24" width="24"/></g><g><path d="M18,22l-0.01-6L14,12l3.99-4.01L18,2H6v6l4,4l-4,3.99V22H18z M8,7.5V4h8v3.5l-4,4L8,7.5z"/></g></svg>

<svg width="24" height="24" viewBox="0 0 24 24" fill="none" xmlns="http://www.w3.org/2000/svg">
<path d="M18 22L17.99 16L14 12L17.99 7.99L18 2H6V8L10 12L6 15.99V22H18ZM8 7.5V4H16V7.5L12 11.5L8 7.5Z" fill="black"/>
</svg>
